X:62
T: Es war ein Jger (Band 1), S. 183
N: P0837
O: Lothringen
S: PINCK, Louis: Verklingende Weisen, Bd 1, Metz 1928]
R: Jagen]
M: 3/8
L: 1/16
K: G
 | D2G2A2 | B6 | F2G2E2 | D6
A2A2A2 | A4A2 | F2G2E2 | D4z2
G2F2G2 | E2E2D2 | GGF2G2 | E2E3E | D4z2
D2G2A2 | B2B2G2 | A2B2A2 | G4z2

